X:1
T:4. PILLOW
T:4. PILLOW DANCE
T:For Children, Sz.42 
T:Book 2 (after Hungarian Folksongs)
T:Béla Bartók
%%score { 1 | 2 }
L:1/8
Q:1/4=135
M:2/4
K:C
V:1 treble nm="Piano" snm="Pno."
V:2 bass 
V:1
"^Allegro" z4 | z4 | z4 | z4 |!p! (GEFD | EDEC) | (DFED | !tenuto!G2) !tenuto!G2 | (GEFD | EDEC) | %10
 (DFED | !tenuto!C2) !tenuto!C2 | z4 | z4 | z4 | z4 |!mf! (dBcA | BABG) | (AcBA | d2) !tenuto!d2 | %20
 (dBcA | BABG) | A(cBA | !tenuto!G2) !tenuto!G2 | z4 | z4 | z4 | z4[Q:1/4=125]"^poco rit." | z4 | %29
[Q:1/4=135]"^a tempo" (GEFD | EDEC) | (DFED | !tenuto!G2) !tenuto!G2 | (GEFD | EDEC) | (DFED | %36
"_dim." !tenuto!C2) !tenuto!C2 | z4 | (DFED | G2) !tenuto!G2 | z4 |!pp! (DFED | %42
 !tenuto!C2) !tenuto!C2 | z4 | z4 | z4 | z4 | z4 |[Q:1/4=120]"^ritard." z4 | z4 | [eg]4 |] %51
V:2
!p! (G,C,A,G, | A,G,A,G, | A,G,A,G, | A,G,A,G, | A,G,A,G,) | z4 | (G,C,F,C, | E,C,D,C, | E,C,F,C, | %9
 G,C,G,)C, | (G,C,F,C, | E,C,D,C, |"_cresc." E,C,F,C, | G,C,)(A,G, | A,G,A,G, | A,G,!>(!A,G, | %16
 A,G,A,G,)!>)! | z4 |!mf! (DG,CG, | B,G,A,G, | B,G,A,E, | DG,DG, | DG,CG,) | (B,G,A,G, | A,G,A,G, | %25
 A,G,F,G,) |"^cresc. molto" (A,G,F,G, | A,G,F,!f!G, |!>(! A,G,F,C,-!>)! |!p! C,2) z2 | z4 | %31
 (G,C,F,C, | E,C,D,C, | E,C,F,C, | G,C,G,C,) | (G,C,F,C, | E,C,D,C, | E,C,F,C, | G,C,) z2 | %39
 (E,C,D,C, | E,C,F,C, | G,C,) z2 |!p! D,(F,E,D,) |!<(! D,(F,E,D,!<)! |!>(! G,F,D,C,)!>)! | %45
!<(! (D,F,E,D,!<)! |!>(! G,F,D,)C,!>)! |"_cresc." (D,F,G,F, | D,C,G,F, |!f! C,4) | C,4 |] %51

